src/assets/svg/icons/fa/nuevos/classic/light/cloud-plus classic light.svg

<svg xmlns="http://www.w3.org/2000/svg" viewBox="0 0 640 512"><!--! Font Awesome Pro 6.4.0 by @fontawesome - https://fontawesome.com License - https://fontawesome.com/license (Commercial License) Copyright 2023 Fonticons, Inc. --><path d="M389.8 125.2C363.7 88.1 320.7 64 272 64c-77.4 0-140.5 61-143.9 137.5c-.6 13-9 24.4-21.3 28.8C63.2 245.7 32 287.2 32 336c0 61.9 50.1 112 112 112H512c53 0 96-43 96-96c0-36.8-20.7-68.8-51.2-84.9c-13.4-7.1-20-22.5-15.8-37.1c2-6.9 3-14.3 3-22c0-44.2-35.8-80-80-80c-12.3 0-23.9 2.8-34.3 7.7c-14.1 6.7-30.9 2.3-39.9-10.5zM272 32c59.5 0 112.1 29.5 144 74.8C430.5 99.9 446.8 96 464 96c61.9 0 112 50.1 112 112c0 10.7-1.5 21-4.3 30.8C612.3 260.2 640 302.9 640 352c0 70.7-57.3 128-128 128H144C64.5 480 0 415.5 0 336c0-62.8 40.2-116.1 96.2-135.9C100.3 106.6 177.4 32 272 32zm32 352V304H224c-8.8 0-16-7.2-16-16s7.2-16 16-16h80V192c0-8.8 7.2-16 16-16s16 7.2 16 16v80h80c8.8 0 16 7.2 16 16s-7.2 16-16 16H336v80c0 8.8-7.2 16-16 16s-16-7.2-16-16z"/></svg>

<svg xmlns="http://www.w3.org/2000/svg" viewBox="0 0 640 512"><path d="M304 384V304H224C215.2 304 208 296.8 208 288C208 279.2 215.2 272 224 272H304V192C304 183.2 311.2 176 320 176C328.8 176 336 183.2 336 192V272H416C424.8 272 432 279.2 432 288C432 296.8 424.8 304 416 304H336V384C336 392.8 328.8 400 320 400C311.2 400 304 392.8 304 384zM272 32C331.5 32 384.1 61.55 416 106.8C430.5 99.87 446.8 96 464 96C525.9 96 576 146.1 576 208C576 218.7 574.5 228.1 571.7 238.8C612.3 260.2 640 302.9 640 352C640 422.7 582.7 480 512 480H144C64.47 480 0 415.5 0 336C0 273.2 40.15 219.9 96.17 200.1C100.3 106.6 177.4 32 272 32zM272 64C194.6 64 131.5 125 128.1 201.5C127.6 214.6 119.1 225.1 106.8 230.3C63.18 245.7 32 287.2 32 336C32 397.9 82.14 448 144 448H512C565 448 608 405 608 352C608 315.2 587.3 283.2 556.8 267.1C543.4 259.1 536.8 244.5 540.9 229.1C542.9 223 544 215.7 544 208C544 163.8 508.2 128 464 128C451.7 128 440.1 130.8 429.7 135.7C415.7 142.4 398.8 137.9 389.8 125.2C363.7 88.12 320.7 64 272 64V64z"/></svg>
